images/portal/4933.svg

<?xml version="1.0" standalone="no"?><!DOCTYPE svg PUBLIC "-//W3C//DTD SVG 1.1//EN" "http://www.w3.org/Graphics/SVG/1.1/DTD/svg11.dtd"><svg xmlns:xlink="http://www.w3.org/1999/xlink" version="1.1" class="highcharts-root" style="font-family:Arial;font-size:12px;" xmlns="http://www.w3.org/2000/svg" width="485" height="415"><desc>Created with Highcharts 5.0.7</desc><defs><clipPath id="highcharts-ilphhxt-1"><rect x="0" y="0" width="300" height="263" fill="none"></rect></clipPath></defs><rect fill="#fbfbfb" class="highcharts-background" x="0" y="0" width="485" height="415" rx="0" ry="0"></rect><rect fill="none" class="highcharts-plot-background" x="53" y="87" width="300" height="263"></rect><g class="highcharts-grid highcharts-xaxis-grid "><path fill="none" class="highcharts-grid-line" d="M 112.5 87 L 112.5 350" opacity="1"></path><path fill="none" class="highcharts-grid-line" d="M 172.5 87 L 172.5 350" opacity="1"></path><path fill="none" class="highcharts-grid-line" d="M 232.5 87 L 232.5 350" opacity="1"></path><path fill="none" class="highcharts-grid-line" d="M 292.5 87 L 292.5 350" opacity="1"></path><path fill="none" class="highcharts-grid-line" d="M 352.5 87 L 352.5 350" opacity="1"></path><path fill="none" class="highcharts-grid-line" d="M 52.5 87 L 52.5 350" opacity="1"></path></g><g class="highcharts-grid highcharts-yaxis-grid "><path fill="none" stroke="#e6e6e6" stroke-width="1" class="highcharts-grid-line" d="M 53 350.5 L 353 350.5" opacity="1"></path><path fill="none" stroke="#e6e6e6" stroke-width="1" class="highcharts-grid-line" d="M 53 324.5 L 353 324.5" opacity="1"></path><path fill="none" stroke="#e6e6e6" stroke-width="1" class="highcharts-grid-line" d="M 53 297.5 L 353 297.5" opacity="1"></path><path fill="none" stroke="#e6e6e6" stroke-width="1" class="highcharts-grid-line" d="M 53 271.5 L 353 271.5" opacity="1"></path><path fill="none" stroke="#e6e6e6" stroke-width="1" class="highcharts-grid-line" d="M 53 245.5 L 353 245.5" opacity="1"></path><path fill="none" stroke="#e6e6e6" stroke-width="1" class="highcharts-grid-line" d="M 53 219.5 L 353 219.5" opacity="1"></path><path fill="none" stroke="#e6e6e6" stroke-width="1" class="highcharts-grid-line" d="M 53 192.5 L 353 192.5" opacity="1"></path><path fill="none" stroke="#e6e6e6" stroke-width="1" class="highcharts-grid-line" d="M 53 166.5 L 353 166.5" opacity="1"></path><path fill="none" stroke="#e6e6e6" stroke-width="1" class="highcharts-grid-line" d="M 53 140.5 L 353 140.5" opacity="1"></path><path fill="none" stroke="#e6e6e6" stroke-width="1" class="highcharts-grid-line" d="M 53 113.5 L 353 113.5" opacity="1"></path><path fill="none" stroke="#e6e6e6" stroke-width="1" class="highcharts-grid-line" d="M 53 86.5 L 353 86.5" opacity="1"></path></g><rect fill="none" class="highcharts-plot-border" x="53" y="87" width="300" height="263"></rect><g class="highcharts-axis highcharts-xaxis "><path fill="none" class="highcharts-tick" stroke="#FFFFFF" stroke-width="1" d="M 112.5 350 L 112.5 360" opacity="1"></path><path fill="none" class="highcharts-tick" stroke="#FFFFFF" stroke-width="1" d="M 172.5 350 L 172.5 360" opacity="1"></path><path fill="none" class="highcharts-tick" stroke="#FFFFFF" stroke-width="1" d="M 232.5 350 L 232.5 360" opacity="1"></path><path fill="none" class="highcharts-tick" stroke="#FFFFFF" stroke-width="1" d="M 292.5 350 L 292.5 360" opacity="1"></path><path fill="none" class="highcharts-tick" stroke="#FFFFFF" stroke-width="1" d="M 353.5 350 L 353.5 360" opacity="1"></path><path fill="none" class="highcharts-tick" stroke="#FFFFFF" stroke-width="1" d="M 52.5 350 L 52.5 360" opacity="1"></path><path fill="none" class="highcharts-axis-line" stroke="#ccd6eb" stroke-width="1" d="M 53 350.5 L 353 350.5"></path></g><g class="highcharts-axis highcharts-yaxis "><path fill="none" class="highcharts-axis-line" d="M 53 87 L 53 350"></path></g><g class="highcharts-series-group"><g class="highcharts-series highcharts-series-0 highcharts-column-series highcharts-color-undefined highcharts-tracker" transform="translate(53,87) scale(1 1)" clip-path="url(#highcharts-ilphhxt-1)"><rect x="15.5" y="239.5" width="29" height="24" fill="#007A2F" class="highcharts-point" stroke="#ffffff" stroke-width="1"></rect><rect x="75.5" y="225.5" width="29" height="38" fill="#007A2F" class="highcharts-point" stroke="#ffffff" stroke-width="1"></rect><rect x="135.5" y="236.5" width="29" height="27" fill="#007A2F" class="highcharts-point" stroke="#ffffff" stroke-width="1"></rect><rect x="195.5" y="229.5" width="29" height="34" fill="#007A2F" class="highcharts-point" stroke="#ffffff" stroke-width="1"></rect><rect x="255.5" y="214.5" width="29" height="49" fill="#007A2F" class="highcharts-point" stroke="#ffffff" stroke-width="1"></rect></g><g class="highcharts-markers highcharts-series-0 highcharts-column-series highcharts-color-undefined " transform="translate(53,87) scale(1 1)" clip-path="none"></g><g class="highcharts-series highcharts-series-1 highcharts-column-series highcharts-color-undefined highcharts-tracker" transform="translate(53,87) scale(1 1)" clip-path="url(#highcharts-ilphhxt-1)"><rect x="15.5" y="158.5" width="29" height="81" fill="#73BA7C" class="highcharts-point" stroke="#ffffff" stroke-width="1"></rect><rect x="75.5" y="136.5" width="29" height="89" fill="#73BA7C" class="highcharts-point" stroke="#ffffff" stroke-width="1"></rect><rect x="135.5" y="145.5" width="29" height="91" fill="#73BA7C" class="highcharts-point" stroke="#ffffff" stroke-width="1"></rect><rect x="195.5" y="125.5" width="29" height="104" fill="#73BA7C" class="highcharts-point" stroke="#ffffff" stroke-width="1"></rect><rect x="255.5" y="100.5" width="29" height="114" fill="#73BA7C" class="highcharts-point" stroke="#ffffff" stroke-width="1"></rect></g><g class="highcharts-markers highcharts-series-1 highcharts-column-series highcharts-color-undefined " transform="translate(53,87) scale(1 1)" clip-path="none"></g><g class="highcharts-series highcharts-series-2 highcharts-column-series highcharts-color-undefined highcharts-tracker" transform="translate(53,87) scale(1 1)" clip-path="url(#highcharts-ilphhxt-1)"><rect x="15.5" y="158.5" width="29" height="0" fill="#C8C8C8" class="highcharts-point" stroke="#ffffff" stroke-width="1"></rect><rect x="75.5" y="136.5" width="29" height="0" fill="#C8C8C8" class="highcharts-point" stroke="#ffffff" stroke-width="1"></rect><rect x="135.5" y="145.5" width="29" height="0" fill="#C8C8C8" class="highcharts-point" stroke="#ffffff" stroke-width="1"></rect><rect x="195.5" y="125.5" width="29" height="0" fill="#C8C8C8" class="highcharts-point" stroke="#ffffff" stroke-width="1"></rect><rect x="255.5" y="98.5" width="29" height="2" fill="#C8C8C8" class="highcharts-point" stroke="#ffffff" stroke-width="1"></rect></g><g class="highcharts-markers highcharts-series-2 highcharts-column-series highcharts-color-undefined " transform="translate(53,87) scale(1 1)" clip-path="none"></g><g class="highcharts-series highcharts-series-3 highcharts-column-series highcharts-color-undefined highcharts-tracker" transform="translate(53,87) scale(1 1)" clip-path="url(#highcharts-ilphhxt-1)"><rect x="15.5" y="67.5" width="29" height="91" fill="#FFBB58" class="highcharts-point" stroke="#ffffff" stroke-width="1"></rect><rect x="75.5" y="52.5" width="29" height="84" fill="#FFBB58" class="highcharts-point" stroke="#ffffff" stroke-width="1"></rect><rect x="135.5" y="57.5" width="29" height="88" fill="#FFBB58" class="highcharts-point" stroke="#ffffff" stroke-width="1"></rect><rect x="195.5" y="37.5" width="29" height="88" fill="#FFBB58" class="highcharts-point" stroke="#ffffff" stroke-width="1"></rect><rect x="255.5" y="19.5" width="29" height="79" fill="#FFBB58" class="highcharts-point" stroke="#ffffff" stroke-width="1"></rect></g><g class="highcharts-markers highcharts-series-3 highcharts-column-series highcharts-color-undefined " transform="translate(53,87) scale(1 1)" clip-path="none"></g><g class="highcharts-series highcharts-series-4 highcharts-column-series highcharts-color-undefined highcharts-tracker" transform="translate(53,87) scale(1 1)" clip-path="url(#highcharts-ilphhxt-1)"><rect x="15.5" y="-0.5" width="29" height="68" fill="#FF8028" class="highcharts-point" stroke="#ffffff" stroke-width="1"></rect><rect x="75.5" y="-0.5" width="29" height="53" fill="#FF8028" class="highcharts-point" stroke="#ffffff" stroke-width="1"></rect><rect x="135.5" y="-0.5" width="29" height="58" fill="#FF8028" class="highcharts-point" stroke="#ffffff" stroke-width="1"></rect><rect x="195.5" y="-0.5" width="29" height="38" fill="#FF8028" class="highcharts-point" stroke="#ffffff" stroke-width="1"></rect><rect x="255.5" y="-0.5" width="29" height="20" fill="#FF8028" class="highcharts-point" stroke="#ffffff" stroke-width="1"></rect></g><g class="highcharts-markers highcharts-series-4 highcharts-column-series highcharts-color-undefined " transform="translate(53,87) scale(1 1)" clip-path="none"></g></g><text x="10" text-anchor="start" class="highcharts-title" style="color:#000000;font-size:14px;font-weight:bold;fill:#000000;" y="21"><tspan>I.50.1.0029 Interesse an der Politik in Basel-Stadt (18- bis 29-</tspan><tspan dy="17" x="10">Jährige)</tspan><title>I.50.1.0029 Interesse an der Politik in Basel-Stadt (18- bis 29-Jährige)</title></text><text x="10" text-anchor="start" class="highcharts-subtitle" style="color:#000000;font-size:12px;fill:#000000;" y="57"><tspan>«Wie stark interessieren Sie sich für die Politik im Kanton Basel-Stadt?» – nur</tspan><tspan dy="15" x="10">Befragte im Alter zwischen 18 und 29 Jahren</tspan><title>«Wie stark interessieren Sie sich für die Politik im Kanton Basel-Stadt?» – nur Befragte im Alter zwischen 18 und 29 Jahren</title></text><g class="highcharts-legend" transform="translate(365,137)"><rect fill="none" class="highcharts-legend-box" rx="0" ry="0" x="0" y="0" width="110" height="121" visibility="visible"></rect><g><g><g class="highcharts-legend-item highcharts-column-series highcharts-color-undefined highcharts-series-4" transform="translate(8,3)"><text x="21" style="color:#333333;font-size:12px;font-weight:normal;cursor:pointer;fill:#333333;" text-anchor="start" y="15"><tspan>Gar nicht</tspan></text><rect x="2" y="4" width="12" height="12" fill="#FF8028" class="highcharts-point"></rect></g><g class="highcharts-legend-item highcharts-column-series highcharts-color-undefined highcharts-series-3" transform="translate(8,22)"><text x="21" y="15" style="color:#333333;font-size:12px;font-weight:normal;cursor:pointer;fill:#333333;" text-anchor="start"><tspan>Eher nicht</tspan></text><rect x="2" y="4" width="12" height="12" fill="#FFBB58" class="highcharts-point"></rect></g><g class="highcharts-legend-item highcharts-column-series highcharts-color-undefined highcharts-series-2" transform="translate(8,41)"><text x="21" y="15" style="color:#333333;font-size:12px;font-weight:normal;cursor:pointer;fill:#333333;" text-anchor="start"><tspan>Weiss nicht /</tspan><tspan x="21" dy="15">keine Angabe</tspan></text><rect x="2" y="4" width="12" height="12" fill="#C8C8C8" class="highcharts-point"></rect></g><g class="highcharts-legend-item highcharts-column-series highcharts-color-undefined highcharts-series-1" transform="translate(8,75)"><text x="21" y="15" style="color:#333333;font-size:12px;font-weight:normal;cursor:pointer;fill:#333333;" text-anchor="start"><tspan>Eher stark</tspan></text><rect x="2" y="4" width="12" height="12" fill="#73BA7C" class="highcharts-point"></rect></g><g class="highcharts-legend-item highcharts-column-series highcharts-color-undefined highcharts-series-0" transform="translate(8,94)"><text x="21" y="15" style="color:#333333;font-size:12px;font-weight:normal;cursor:pointer;fill:#333333;" text-anchor="start"><tspan>Sehr stark</tspan></text><rect x="2" y="4" width="12" height="12" fill="#007A2F" class="highcharts-point"></rect></g></g></g></g><g class="highcharts-axis-labels highcharts-xaxis-labels "><text x="83" style="color:#000000;cursor:default;font-size:11px;fill:#000000;" text-anchor="middle" transform="translate(0,0)" y="369" opacity="1"><tspan>2003</tspan><tspan x="83" dy="14">(N=208)</tspan></text><text x="143" style="color:#000000;cursor:default;font-size:11px;fill:#000000;" text-anchor="middle" transform="translate(0,0)" y="369" opacity="1"><tspan>2005</tspan><tspan x="143" dy="14">(N=223)</tspan></text><text x="203" style="color:#000000;cursor:default;font-size:11px;fill:#000000;" text-anchor="middle" transform="translate(0,0)" y="369" opacity="1"><tspan>2007</tspan><tspan x="203" dy="14">(N=212)</tspan></text><text x="263" style="color:#000000;cursor:default;font-size:11px;fill:#000000;" text-anchor="middle" transform="translate(0,0)" y="369" opacity="1"><tspan>2011</tspan><tspan x="263" dy="14">(N=179)</tspan></text><text x="323" style="color:#000000;cursor:default;font-size:11px;fill:#000000;" text-anchor="middle" transform="translate(0,0)" y="369" opacity="1"><tspan>2015</tspan><tspan x="323" dy="14">(N=97)</tspan></text></g><g class="highcharts-axis-labels highcharts-yaxis-labels "><text x="38" style="color:#000000;cursor:default;font-size:11px;fill:#000000;" text-anchor="end" transform="translate(0,0)" y="355" opacity="1"><tspan>0%</tspan></text><text x="38" style="color:#000000;cursor:default;font-size:11px;fill:#000000;" text-anchor="end" transform="translate(0,0)" y="328" opacity="1"><tspan>10%</tspan></text><text x="38" style="color:#000000;cursor:default;font-size:11px;fill:#000000;" text-anchor="end" transform="translate(0,0)" y="302" opacity="1"><tspan>20%</tspan></text><text x="38" style="color:#000000;cursor:default;font-size:11px;fill:#000000;" text-anchor="end" transform="translate(0,0)" y="276" opacity="1"><tspan>30%</tspan></text><text x="38" style="color:#000000;cursor:default;font-size:11px;fill:#000000;" text-anchor="end" transform="translate(0,0)" y="249" opacity="1"><tspan>40%</tspan></text><text x="38" style="color:#000000;cursor:default;font-size:11px;fill:#000000;" text-anchor="end" transform="translate(0,0)" y="223" opacity="1"><tspan>50%</tspan></text><text x="38" style="color:#000000;cursor:default;font-size:11px;fill:#000000;" text-anchor="end" transform="translate(0,0)" y="197" opacity="1"><tspan>60%</tspan></text><text x="38" style="color:#000000;cursor:default;font-size:11px;fill:#000000;" text-anchor="end" transform="translate(0,0)" y="170" opacity="1"><tspan>70%</tspan></text><text x="38" style="color:#000000;cursor:default;font-size:11px;fill:#000000;" text-anchor="end" transform="translate(0,0)" y="144" opacity="1"><tspan>80%</tspan></text><text x="38" style="color:#000000;cursor:default;font-size:11px;fill:#000000;" text-anchor="end" transform="translate(0,0)" y="118" opacity="1"><tspan>90%</tspan></text><text x="38" style="color:#000000;cursor:default;font-size:11px;fill:#000000;" text-anchor="end" transform="translate(0,0)" y="92" opacity="1"><tspan>100%</tspan></text></g><text x="10" class="highcharts-credits" text-anchor="start" style="cursor:default;color:#000000;font-size:10px;fill:#000000;" y="400"><tspan>Quelle: Statistisches Amt Basel-Stadt, kantonale Bevölkerungsbefragung: F20</tspan></text></svg>

<svg class="highcharts-root" xmlns="http://www.w3.org/2000/svg" viewBox="0 0 485 415" font-family="Arial" font-size="12">
    <defs>
        <clipPath id="a">
            <path fill="none" d="M0 0h300v263H0z"/>
        </clipPath>
    </defs>
    <rect fill="#fbfbfb" class="highcharts-background" width="485" height="415" rx="0" ry="0"/>
    <path fill="none" class="highcharts-plot-background" d="M53 87h300v263H53z"/>
    <g class="highcharts-grid highcharts-xaxis-grid">
        <path fill="none" class="highcharts-grid-line" d="M112.5 87v263m60-263v263m60-263v263m60-263v263m60-263v263M52.5 87v263"/>
    </g>
    <g class="highcharts-grid highcharts-yaxis-grid">
        <path fill="none" stroke="#e6e6e6" class="highcharts-grid-line" d="M53 350.5h300m-300-26h300m-300-27h300m-300-26h300m-300-26h300m-300-26h300m-300-27h300m-300-26h300m-300-26h300m-300-27h300m-300-27h300"/>
    </g>
    <path fill="none" class="highcharts-plot-border" d="M53 87h300v263H53z"/>
    <g class="highcharts-axis highcharts-xaxis">
        <path fill="none" class="highcharts-tick" stroke="#FFF" d="M112.5 350v10m60-10v10m60-10v10m60-10v10m61-10v10m-301-10v10"/>
        <path fill="none" class="highcharts-axis-line" stroke="#ccd6eb" d="M53 350.5h300"/>
    </g>
    <g class="highcharts-axis highcharts-yaxis">
        <path fill="none" class="highcharts-axis-line" d="M53 87v263"/>
    </g>
    <g class="highcharts-series-group">
        <g class="highcharts-series highcharts-series-0 highcharts-column-series highcharts-color-undefined highcharts-tracker" transform="translate(53 87)" clip-path="url(#a)">
            <path fill="#007A2F" class="highcharts-point" stroke="#fff" d="M15.5 239.5h29v24h-29zm60-14h29v38h-29zm60 11h29v27h-29zm60-7h29v34h-29zm60-15h29v49h-29z"/>
        </g>
        <g class="highcharts-series highcharts-series-1 highcharts-column-series highcharts-color-undefined highcharts-tracker" transform="translate(53 87)" clip-path="url(#a)">
            <path fill="#73BA7C" class="highcharts-point" stroke="#fff" d="M15.5 158.5h29v81h-29zm60-22h29v89h-29zm60 9h29v91h-29zm60-20h29v104h-29zm60-25h29v114h-29z"/>
        </g>
        <g class="highcharts-series highcharts-series-2 highcharts-column-series highcharts-color-undefined highcharts-tracker" transform="translate(53 87)" clip-path="url(#a)">
            <path fill="#C8C8C8" class="highcharts-point" stroke="#fff" d="M255.5 98.5h29v2h-29z"/>
        </g>
        <g class="highcharts-series highcharts-series-3 highcharts-column-series highcharts-color-undefined highcharts-tracker" transform="translate(53 87)" clip-path="url(#a)">
            <path fill="#FFBB58" class="highcharts-point" stroke="#fff" d="M15.5 67.5h29v91h-29zm60-15h29v84h-29zm60 5h29v88h-29zm60-20h29v88h-29zm60-18h29v79h-29z"/>
        </g>
        <g class="highcharts-series highcharts-series-4 highcharts-column-series highcharts-color-undefined highcharts-tracker" transform="translate(53 87)" clip-path="url(#a)">
            <path fill="#FF8028" class="highcharts-point" stroke="#fff" d="M15.5-.5h29v68h-29zm60 0h29v53h-29zm60 0h29v58h-29zm60 0h29v38h-29zm60 0h29v20h-29z"/>
        </g>
    </g>
    <text x="10" class="highcharts-title" y="21" color="#000" font-size="14" font-weight="700">
        <tspan>I.50.1.0029 Interesse an der Politik in Basel-Stadt (18- bis 29-</tspan><tspan dy="17" x="10">Jährige)</tspan><title>I.50.1.0029 Interesse an der Politik in Basel-Stadt (18- bis 29-Jährige)</title>
    </text>
    <text x="10" class="highcharts-subtitle" y="57" color="#000">
        <tspan>«Wie stark interessieren Sie sich für die Politik im Kanton Basel-Stadt?» – nur</tspan><tspan dy="15" x="10">Befragte im Alter zwischen 18 und 29 Jahren</tspan><title>«Wie stark interessieren Sie sich für die Politik im Kanton Basel-Stadt?» – nur Befragte im Alter zwischen 18 und 29 Jahren</title>
    </text>
    <g class="highcharts-legend" transform="translate(365 137)">
        <rect fill="none" class="highcharts-legend-box" rx="0" ry="0" width="110" height="121"/>
        <g class="highcharts-legend-item highcharts-column-series highcharts-color-undefined highcharts-series-4">
            <text x="21" y="15" color="#333" font-weight="400" cursor="pointer" fill="#333" transform="translate(8 3)">
                <tspan>Gar nicht</tspan>
            </text>
            <path fill="#FF8028" class="highcharts-point" d="M10 7h12v12H10z"/>
        </g>
        <g class="highcharts-legend-item highcharts-column-series highcharts-color-undefined highcharts-series-3">
            <text x="21" y="15" color="#333" font-weight="400" cursor="pointer" fill="#333" transform="translate(8 22)">
                <tspan>Eher nicht</tspan>
            </text>
            <path fill="#FFBB58" class="highcharts-point" d="M10 26h12v12H10z"/>
        </g>
        <g class="highcharts-legend-item highcharts-column-series highcharts-color-undefined highcharts-series-2">
            <text x="21" y="15" color="#333" font-weight="400" cursor="pointer" fill="#333" transform="translate(8 41)">
                <tspan>Weiss nicht /</tspan><tspan x="21" dy="15">keine Angabe</tspan>
            </text>
            <path fill="#C8C8C8" class="highcharts-point" d="M10 45h12v12H10z"/>
        </g>
        <g class="highcharts-legend-item highcharts-column-series highcharts-color-undefined highcharts-series-1">
            <text x="21" y="15" color="#333" font-weight="400" cursor="pointer" fill="#333" transform="translate(8 75)">
                <tspan>Eher stark</tspan>
            </text>
            <path fill="#73BA7C" class="highcharts-point" d="M10 79h12v12H10z"/>
        </g>
        <g class="highcharts-legend-item highcharts-column-series highcharts-color-undefined highcharts-series-0">
            <text x="21" y="15" color="#333" font-weight="400" cursor="pointer" fill="#333" transform="translate(8 94)">
                <tspan>Sehr stark</tspan>
            </text>
            <path fill="#007A2F" class="highcharts-point" d="M10 98h12v12H10z"/>
        </g>
    </g>
    <g class="highcharts-axis-labels highcharts-xaxis-labels" text-anchor="middle" color="#000" cursor="default" font-size="11">
        <text x="83" y="369">
            <tspan>2003</tspan><tspan x="83" dy="14">(N=208)</tspan>
        </text>
        <text x="143" y="369">
            <tspan>2005</tspan><tspan x="143" dy="14">(N=223)</tspan>
        </text>
        <text x="203" y="369">
            <tspan>2007</tspan><tspan x="203" dy="14">(N=212)</tspan>
        </text>
        <text x="263" y="369">
            <tspan>2011</tspan><tspan x="263" dy="14">(N=179)</tspan>
        </text>
        <text x="323" y="369">
            <tspan>2015</tspan><tspan x="323" dy="14">(N=97)</tspan>
        </text>
    </g>
    <g class="highcharts-axis-labels highcharts-yaxis-labels" text-anchor="end" color="#000" cursor="default" font-size="11">
        <text x="38" y="355">
            <tspan>0%</tspan>
        </text>
        <text x="38" y="328">
            <tspan>10%</tspan>
        </text>
        <text x="38" y="302">
            <tspan>20%</tspan>
        </text>
        <text x="38" y="276">
            <tspan>30%</tspan>
        </text>
        <text x="38" y="249">
            <tspan>40%</tspan>
        </text>
        <text x="38" y="223">
            <tspan>50%</tspan>
        </text>
        <text x="38" y="197">
            <tspan>60%</tspan>
        </text>
        <text x="38" y="170">
            <tspan>70%</tspan>
        </text>
        <text x="38" y="144">
            <tspan>80%</tspan>
        </text>
        <text x="38" y="118">
            <tspan>90%</tspan>
        </text>
        <text x="38" y="92">
            <tspan>100%</tspan>
        </text>
    </g>
    <text x="10" class="highcharts-credits" y="400" cursor="default" color="#000" font-size="10">
        <tspan>Quelle: Statistisches Amt Basel-Stadt, kantonale Bevölkerungsbefragung: F20</tspan>
    </text>
</svg>
